icons/midnadark/places/16/folder-tar.svg

<?xml version="1.0" encoding="UTF-8" standalone="no"?>
<!-- Created with Inkscape (http://www.inkscape.org/) -->

<svg
   xmlns:dc="http://purl.org/dc/elements/1.1/"
   xmlns:cc="http://creativecommons.org/ns#"
   xmlns:rdf="http://www.w3.org/1999/02/22-rdf-syntax-ns#"
   xmlns:svg="http://www.w3.org/2000/svg"
   xmlns="http://www.w3.org/2000/svg"
   xmlns:sodipodi="http://sodipodi.sourceforge.net/DTD/sodipodi-0.dtd"
   xmlns:inkscape="http://www.inkscape.org/namespaces/inkscape"
   width="16"
   height="16"
   id="svg2"
   version="1.1"
   inkscape:version="0.91 r13725"
   viewBox="0 0 16 16"
   sodipodi:docname="folder-tar.svg">
  <defs
     id="defs4" />
  <sodipodi:namedview
     id="base"
     pagecolor="#676767"
     bordercolor="#666666"
     borderopacity="1.0"
     inkscape:pageopacity="0"
     inkscape:pageshadow="2"
     inkscape:zoom="24.01"
     inkscape:cx="6.669722"
     inkscape:cy="5.6041652"
     inkscape:document-units="px"
     inkscape:current-layer="layer1"
     showgrid="false"
     inkscape:showpageshadow="false"
     borderlayer="true"
     units="px"
     inkscape:window-width="1366"
     inkscape:window-height="687"
     inkscape:window-x="0"
     inkscape:window-y="0"
     inkscape:window-maximized="1"
     inkscape:snap-global="true"
     inkscape:snap-bbox="true"
     showguides="false">
    <inkscape:grid
       type="xygrid"
       id="grid4062" />
    <sodipodi:guide
       position="2,2.0000174"
       orientation="0,12"
       id="guide4068" />
    <sodipodi:guide
       position="14,2.0000174"
       orientation="-12,0"
       id="guide4070" />
    <sodipodi:guide
       position="14,14.000017"
       orientation="0,-12"
       id="guide4072" />
  </sodipodi:namedview>
  <metadata
     id="metadata7">
    <rdf:RDF>
      <cc:Work
         rdf:about="">
        <dc:format>image/svg+xml</dc:format>
        <dc:type
           rdf:resource="http://purl.org/dc/dcmitype/StillImage" />
        <dc:title></dc:title>
      </cc:Work>
    </rdf:RDF>
  </metadata>
  <g
     inkscape:label="Capa 1"
     inkscape:groupmode="layer"
     id="layer1"
     transform="translate(0,-1036.3622)">
    <g
       transform="matrix(0.90537551,0,0,0.90537551,-365.91682,562.06022)"
       id="layer1-0"
       inkscape:label="Capa 1"
       style="fill:none;fill-opacity:1;stroke:#4f96d1;stroke-opacity:1">
      <g
         transform="matrix(0.04678128,0,0,0.04630826,417.81087,495.30995)"
         style="display:inline;fill:#60aae5;fill-opacity:1"
         id="g4163">
        <path
           transform="matrix(0.78720225,0,0,0.79524314,415.34217,430.10746)"
           sodipodi:nodetypes="scccssccccs"
           d="m -884.09987,294.78348 c -4.62566,0 -8.34918,3.71755 -8.34918,8.33531 l 0,59.42976 468.19182,1.00001 0,-19.21878 c 0,-4.61776 -3.7239,-8.3353 -8.34956,-8.3353 l -272.65225,0 c -8.5104,0.75134 -9.60667,-0.37701 -13.8121,-5.98088 -5.9637,-7.96762 -14.96889,-21.44253 -20.83998,-29.21462 -4.71246,-6.80467 -5.47678,-6.0155 -13.29224,-6.0155 z"
           inkscape:connector-curvature="0"
           id="rect8678-4-5-5-9"
           style="color:#000000;display:inline;overflow:visible;visibility:visible;fill:#ffffff;fill-opacity:1;fill-rule:nonzero;stroke:none;stroke-width:0.99992168;stroke-opacity:1;marker:none;enable-background:accumulate" />
        <path
           style="display:inline;opacity:1;fill:#ffffff;fill-opacity:1;stroke:none;stroke-width:0.07929727;stroke-linecap:butt;stroke-linejoin:miter;stroke-miterlimit:4;stroke-dasharray:none;stroke-opacity:1"
           d="M 0.58789062 4.0703125 C 0.41001637 4.0703125 0.26757813 4.2127507 0.26757812 4.390625 L 0.26757812 13.589844 C 0.26757812 13.767718 0.41001637 13.910156 0.58789062 13.910156 L 15.412109 13.910156 C 15.589984 13.910156 15.732422 13.767718 15.732422 13.589844 L 15.732422 4.390625 C 15.732422 4.2127507 15.589984 4.0703125 15.412109 4.0703125 L 0.58789062 4.0703125 z M 7.6132812 5.09375 L 8.3945312 5.09375 C 8.5673186 5.09375 8.7070314 5.2334637 8.7070312 5.40625 L 8.7070312 5.484375 C 8.7070312 5.6571615 8.5673186 5.7949219 8.3945312 5.7949219 L 7.6132812 5.7949219 C 7.4404949 5.7949219 7.3027344 5.6571615 7.3027344 5.484375 L 7.3027344 5.40625 C 7.3027344 5.2334637 7.4404949 5.09375 7.6132812 5.09375 z M 7.6289062 6.1367188 L 8.4101562 6.1367188 C 8.5829436 6.1367188 8.7207031 6.2764322 8.7207031 6.4492188 L 8.7207031 6.5273438 C 8.7207031 6.7001301 8.5829436 6.8398438 8.4101562 6.8398438 L 7.6289062 6.8398438 C 7.4561198 6.8398437 7.3183594 6.7001301 7.3183594 6.5273438 L 7.3183594 6.4492188 C 7.3183594 6.2764322 7.4561198 6.1367186 7.6289062 6.1367188 z M 7.6289062 7.1640625 L 8.4101562 7.1640625 C 8.5829436 7.1640625 8.7207031 7.301823 8.7207031 7.4746094 L 8.7207031 7.5527344 C 8.7207031 7.7255208 8.5829436 7.8652344 8.4101562 7.8652344 L 7.6289062 7.8652344 C 7.4561198 7.8652344 7.3183594 7.7255208 7.3183594 7.5527344 L 7.3183594 7.4746094 C 7.3183594 7.301823 7.4561198 7.1640625 7.6289062 7.1640625 z M 7.6289062 8.2128906 L 8.4101562 8.2128906 C 8.5829436 8.2128906 8.7207031 8.3526042 8.7207031 8.5253906 L 8.7207031 8.6035156 C 8.7207031 8.776302 8.5829436 8.9160156 8.4101562 8.9160156 L 7.6289062 8.9160156 C 7.4561198 8.9160156 7.3183594 8.776302 7.3183594 8.6035156 L 7.3183594 8.5253906 C 7.3183594 8.3526042 7.4561198 8.2128906 7.6289062 8.2128906 z M 7.6914062 9.2753906 L 8.3105469 9.2753906 C 8.4335153 9.2753906 8.5332031 9.3746316 8.5332031 9.4980469 L 8.5332031 9.9414062 L 8.8769531 10.955078 C 8.9732147 11.237666 8.9274093 11.553358 8.7539062 11.796875 C 8.5804046 12.039947 8.2999828 12.185547 8.0019531 12.185547 C 7.7039829 12.185547 7.4215526 12.039947 7.2480469 11.796875 C 7.0745448 11.553358 7.0287114 11.237887 7.125 10.955078 L 7.46875 9.9414062 L 7.46875 9.4980469 C 7.46875 9.3746563 7.5684371 9.2753906 7.6914062 9.2753906 z "
           transform="matrix(23.610172,0,0,23.851341,-291.79598,616.80715)"
           id="rect4158-4-0" />
        <rect
           transform="matrix(0.78720228,0,0,0.79524319,415.34217,430.10746)"
           ry="9.629776"
           y="356.84882"
           x="-890.27631"
           height="295.12872"
           width="463.84711"
           id="rect4158-4-0-3"
           style="opacity:1;fill:none;fill-opacity:1;stroke:#ffffff;stroke-width:5.37616777;stroke-linecap:round;stroke-linejoin:round;stroke-miterlimit:4;stroke-dasharray:none;stroke-opacity:1" />
      </g>
      <g
         transform="matrix(1.1045141,0,0,1.1045141,404.14949,-620.34007)"
         id="layer1-00"
         inkscape:label="Capa 1">
        <g
           style="fill:#4d4d4d;fill-opacity:1;stroke:none;stroke-opacity:0.8"
           inkscape:label="Capa 1"
           id="layer1-0-5"
           transform="matrix(0.90537551,0,0,0.90537551,-365.91682,562.06022)">
          <g
             style="fill:#4d4d4d;fill-opacity:1;stroke:none;stroke-opacity:0.8"
             transform="matrix(0.05349368,0,0,0.05349368,440.48894,510.84577)"
             id="g4956-2">
            <g
               style="fill:#4d4d4d;fill-opacity:1;stroke:none;stroke-width:7.16012144;stroke-miterlimit:4;stroke-dasharray:none;stroke-opacity:0.8"
               transform="matrix(2.6108213,0,0,2.6108213,-768.22476,390.2786)"
               id="layer1-7-5-6-1" />
          </g>
        </g>
      </g>
    </g>
    <g
       id="layer1-7"
       inkscape:label="Capa 1"
       transform="translate(-23.843168,-0.13151417)">
      <g
         style="fill:#fb87e4;fill-opacity:1;stroke:none;stroke-opacity:1"
         inkscape:label="Capa 1"
         id="layer1-0-8"
         transform="matrix(0.90537551,0,0,0.90537551,-365.91682,562.06022)">
        <g
           style="fill:#fb87e4;fill-opacity:1;stroke:none;stroke-opacity:1"
           transform="matrix(0.05349368,0,0,0.05349368,440.48894,510.84577)"
           id="g4956-2-4">
          <g
             style="fill:#fb87e4;fill-opacity:1;stroke:none;stroke-width:7.16012144;stroke-miterlimit:4;stroke-dasharray:none;stroke-opacity:1"
             transform="matrix(2.6108213,0,0,2.6108213,-768.22476,390.2786)"
             id="layer1-7-5-6-1-1" />
        </g>
      </g>
    </g>
    <g
       id="layer1-1"
       inkscape:label="Capa 1"
       transform="translate(-19.089933,1.0398679)">
      <g
         style="fill:none;fill-opacity:1;stroke:#4f96d1;stroke-opacity:1"
         inkscape:label="Capa 1"
         id="layer1-0-9"
         transform="matrix(0.90537551,0,0,0.90537551,-365.91682,562.06022)" />
      <g
         inkscape:label="Capa 1"
         id="layer1-00-7"
         transform="translate(-401.01229,510.63371)">
        <g
           inkscape:label="Capa 1"
           id="layer1-4"
           transform="translate(5.05585,-5.251147)">
          <g
             style="fill:#4d4d4d;fill-opacity:1"
             id="g4187"
             transform="matrix(0.77975636,0,0,0.78394543,95.974603,112.35451)" />
        </g>
      </g>
    </g>
    <g
       id="layer1-8"
       inkscape:label="Capa 1"
       transform="translate(-0.24120482,0.55804693)">
      <g
         style="fill:none;fill-opacity:1;stroke:#000000;stroke-opacity:0.8"
         inkscape:label="Capa 1"
         id="layer1-0-7"
         transform="matrix(0.90537551,0,0,0.90537551,-365.91682,562.06022)">
        <g
           style="fill:#4d4d4d;fill-opacity:1;stroke:none;stroke-width:0.99108297;stroke-linecap:round;stroke-linejoin:miter;stroke-miterlimit:4;stroke-dasharray:none;stroke-opacity:1"
           transform="matrix(0.05349368,0,0,0.05349368,440.48894,510.84577)"
           id="g4956-2-7">
          <g
             style="fill:#4d4d4d;fill-opacity:1;stroke:none;stroke-width:0.37960583;stroke-linecap:round;stroke-linejoin:miter;stroke-miterlimit:4;stroke-dasharray:none;stroke-opacity:1"
             transform="matrix(2.6108213,0,0,2.6108213,-768.22476,390.2786)"
             id="layer1-7-5-6-1-9" />
        </g>
        <g
           style="fill:#ffffff;fill-opacity:1;stroke:none"
           inkscape:label="Capa 1"
           id="layer1-5"
           transform="matrix(0.59690053,0,0,0.59690053,136.56862,221.51745)">
          <g
             style="fill:#ffffff;fill-opacity:1;stroke:none"
             transform="matrix(1.5263052,0,0,1.5263052,376.49864,-1040.1735)"
             id="g4414">
            <g
               style="fill:#ffffff;fill-opacity:1;stroke:none"
               inkscape:label="Capa 1"
               id="layer1-0-5-6"
               transform="matrix(0.42549858,0,0,0.42549858,-116.82388,804.06163)">
              <g
                 style="fill:#ffffff;fill-opacity:1;stroke:none"
                 id="layer1-7-0"
                 inkscape:label="Capa 1"
                 transform="translate(-0.71741557,-5.8011298)" />
            </g>
          </g>
        </g>
      </g>
    </g>
  </g>
</svg>

<svg xmlns="http://www.w3.org/2000/svg" viewBox="0 0 16 16"><g transform="matrix(.04235 0 0 .04193 12.359-25.862)" fill="#60aae5" stroke="#4f96d1"><g fill="#fff" stroke="none"><path transform="matrix(.7872 0 0 .79524 415.34 430.11)" d="m-884.1 294.78c-4.626 0-8.349 3.718-8.349 8.335v59.43l468.19 1v-19.219c0-4.618-3.724-8.335-8.35-8.335h-272.65c-8.51.751-9.607-.377-13.812-5.981-5.964-7.968-14.969-21.443-20.84-29.21-4.712-6.805-5.477-6.02-13.292-6.02z" color="#000"/><path d="m.588 4.07c-.178 0-.32.142-.32.32v9.199c0 .178.142.32.32.32h14.824c.178 0 .32-.142.32-.32v-9.199c0-.178-.142-.32-.32-.32h-14.824m7.03 1.023h.781c.173 0 .313.14.313.313v.078c0 .173-.14.311-.313.311h-.781c-.173 0-.311-.138-.311-.311v-.078c0-.173.138-.313.311-.313m.016 1.043h.781c.173 0 .311.14.311.313v.078c0 .173-.138.313-.311.313h-.781c-.173 0-.311-.14-.311-.313v-.078c0-.173.138-.313.311-.313m0 1.027h.781c.173 0 .311.138.311.311v.078c0 .173-.138.313-.311.313h-.781c-.173 0-.311-.14-.311-.313v-.078c0-.173.138-.311.311-.311m0 1.049h.781c.173 0 .311.14.311.313v.078c0 .173-.138.313-.311.313h-.781c-.173 0-.311-.14-.311-.313v-.078c0-.173.138-.313.311-.313m.063 1.063h.619c.123 0 .223.099.223.223v.443l.344 1.014c.096.283.05.598-.123.842-.174.243-.454.389-.752.389-.298 0-.58-.146-.754-.389-.174-.244-.219-.559-.123-.842l.344-1.014v-.443c0-.123.1-.223.223-.223" transform="matrix(23.61017 0 0 23.85134-291.8 616.81)"/></g><rect transform="matrix(.7872 0 0 .79524 415.34 430.11)" y="356.85" x="-890.28" height="295.13" width="463.85" fill="none" stroke="#fff" stroke-linejoin="round" stroke-linecap="round" stroke-width="5.376" rx="9.63"/></g></svg>
